X:67
T:Waterloo Dance
O:No 67 Wm Clarke MS  Feltwell, Norfolk
N:Phrase in bar 14-15 reminiscent of better-known Waterloo Dance.
N:Bar 16 wrong note values in MS
I:abc2nwc
M:2/2
L:1/8
K:C
G2|c2ec g2c2|c'2b2a2g2|e2Gc e2ac|B2d2f2d2|
c2ec g2c2|c'2b2a2g2|g2ec g2ec|d2de c2:|
|:z2|G2BG d2G2|f2e2d2c2|c2ec g2c2|c'2b2a2g2|
g2ge c'2c'a|g2ge c'2c'a|g2c'2b2"^*"agfe|dcBA G2z2|
c2ec g2c2|c'2b2a2g2|e2Gc e2ac|B2d2f2d2|
c2ec g2c2|c'2b2a2g2|g2ec g2ec|d2de c2:|

